X:1
T:Duitse Wals
C:Trad.
O:Deutschland
Z:Bart Vanhaverbeke 
L:1/4
M:3/4
Q:1/4=104
P:AB
K:C
P:A
G | c>B c | E A G | F B>A | G2 A | G B>A | G2 A | G e>c | G z G |
c>B c | E A G | F B>A | G2 G | A2 A | f2 B | (c3 |c2) ||
P:B
G | A>A A | f>f f | e>e e | c2 c | d>d d| B2 G | e>e e | c2 G |
A>A A | f>f f | e>e e | c2 c | d>d d| G2 B | (c3 | c2) ||
